X:2
T:Les moutons perdus et retrouv\'es
R:Larid\'e 8 temps
G:Traditionnel, pays de Rennes
C:Chansons populaires de la France, Thomas Frederick Crane, janvier 1891
Z:Remove anacrusis, split long note to fit a larid\'e 8 temps, change chords
Q:1/4=140
P:B4
M:4/4
K:Em
P:B
%%MIDI gchord cfcf
%%MIDI gchord c2zfc4f4c4
%MIDI program 109
%MIDI gchord fcffcfcz
%MIDI chordprog 42
%MIDI chordvol 127
%MIDI bassprog 34
%MIDI bassvol 127
|: "Em"E>E "G"B4 "D"F2 | "C"B>B "D"A>G "Bm"F4 |\
"Em"E>E "G"B4 "D"F2 | "C"B>B "D"A>G "Bm"F4 |
F2 "D"F3 G "Am"AB | "Em"GF "C"E2 "Bm"B4 | B2 "D"F3 G "Am"AB | "C"GF "Em"E6 :|


